src/assets/icons/remotes/mega.svg

<svg width="24" height="24" viewBox="0 0 24 24" xmlns="http://www.w3.org/2000/svg">
    <path
        d="M12 2C6.47703 2 2 6.47703 2 12C2 17.523 6.47703 22 12 22C17.523 22 22 17.523 22 12C22 6.47703 17.523 2 12 2ZM17.1909 15.5363C17.191 15.577 17.183 15.6173 17.1675 15.6549C17.1519 15.6926 17.1291 15.7267 17.1003 15.7555C17.0715 15.7843 17.0373 15.8072 16.9997 15.8227C16.9621 15.8383 16.9217 15.8462 16.881 15.8462H15.575C15.5343 15.8462 15.494 15.8383 15.4563 15.8227C15.4187 15.8072 15.3845 15.7843 15.3557 15.7555C15.3269 15.7268 15.3041 15.6926 15.2885 15.6549C15.273 15.6173 15.265 15.577 15.2651 15.5363V11.513C15.2649 11.5054 15.2624 11.4981 15.2581 11.4918C15.2538 11.4856 15.2478 11.4807 15.2408 11.4778C15.2338 11.4748 15.2261 11.474 15.2186 11.4753C15.2111 11.4767 15.2042 11.4802 15.1987 11.4853L12.4317 14.2523C12.316 14.3667 12.1599 14.4308 11.9972 14.4308C11.8346 14.4308 11.6785 14.3667 11.5628 14.2523L8.7958 11.4853C8.79016 11.4804 8.78326 11.4772 8.77587 11.4759C8.76848 11.4747 8.76089 11.4756 8.75398 11.4785C8.74707 11.4814 8.7411 11.4862 8.73675 11.4922C8.7324 11.4983 8.72985 11.5055 8.72938 11.513V15.5362C8.72945 15.5769 8.72148 15.6173 8.70593 15.6549C8.69038 15.6925 8.66756 15.7267 8.63877 15.7555C8.60998 15.7843 8.57579 15.8071 8.53816 15.8227C8.50053 15.8383 8.4602 15.8462 8.41949 15.8462H7.11346C7.07274 15.8462 7.03241 15.8383 6.99478 15.8227C6.95715 15.8072 6.92296 15.7843 6.89417 15.7555C6.86538 15.7268 6.84255 15.6926 6.827 15.6549C6.81145 15.6173 6.80348 15.577 6.80355 15.5363V8.46375C6.80348 8.42303 6.81145 8.38271 6.827 8.34508C6.84255 8.30745 6.86537 8.27326 6.89416 8.24447C6.92295 8.21568 6.95714 8.19285 6.99477 8.1773C7.03239 8.16175 7.07272 8.15377 7.11344 8.15384H8.00996C8.174 8.15501 8.33101 8.2206 8.44714 8.33647L11.8893 11.7786C11.9033 11.7931 11.9201 11.8046 11.9387 11.8124C11.9572 11.8203 11.9771 11.8243 11.9972 11.8243C12.0174 11.8243 12.0373 11.8203 12.0558 11.8124C12.0744 11.8046 12.0911 11.7931 12.1052 11.7786L15.5473 8.33645C15.6045 8.27865 15.6726 8.23275 15.7476 8.20141C15.8227 8.17007 15.9032 8.15391 15.9845 8.15386H16.881C16.9217 8.1538 16.9621 8.16177 16.9997 8.17732C17.0373 8.19287 17.0715 8.21569 17.1003 8.24448C17.1291 8.27327 17.1519 8.30746 17.1675 8.34508C17.183 8.38271 17.191 8.42304 17.1909 8.46375V15.5363Z" />
</svg>

<svg xmlns="http://www.w3.org/2000/svg" width="24" height="24" viewBox="0 0 24 24"><path d="M12 2C6.477 2 2 6.477 2 12s4.477 10 10 10 10-4.477 10-10S17.523 2 12 2m5.19 13.536a.31.31 0 0 1-.309.31h-1.306a.31.31 0 0 1-.31-.31v-4.023a.04.04 0 0 0-.066-.028l-2.767 2.767a.62.62 0 0 1-.87 0l-2.766-2.767a.04.04 0 0 0-.066.028v4.023a.31.31 0 0 1-.31.31H7.112a.31.31 0 0 1-.31-.31V8.464a.31.31 0 0 1 .31-.31h.897a.63.63 0 0 1 .437.182l3.442 3.443a.15.15 0 0 0 .108.045.15.15 0 0 0 .108-.045l3.442-3.443a.62.62 0 0 1 .438-.182h.896a.31.31 0 0 1 .31.31z"/></svg>
